packages/components/src/components/icon/common/ic-identity-document-verification.svg

<svg width="16" height="12" viewBox="0 0 16 12" fill="none" xmlns="http://www.w3.org/2000/svg">
<path fill-rule="evenodd" clip-rule="evenodd" d="M2.5 1C1.67157 1 1 1.67157 1 2.5V9.5C1 10.3284 1.67157 11 2.5 11H13.5C14.3284 11 15 10.3284 15 9.5V2.5C15 1.67157 14.3284 1 13.5 1H2.5ZM0 2.5C0 1.11929 1.11929 0 2.5 0H13.5C14.8807 0 16 1.11929 16 2.5V9.5C16 10.8807 14.8807 12 13.5 12H2.5C1.11929 12 0 10.8807 0 9.5V2.5Z" fill="var(--fill-color1)"/>
<path d="M9 4.5C9 4.22386 9.22386 4 9.5 4H13.5C13.7761 4 14 4.22386 14 4.5C14 4.77614 13.7761 5 13.5 5H9.5C9.22386 5 9 4.77614 9 4.5Z" fill="var(--fill-color1)"/>
<path d="M9 6C9 5.72386 9.22386 5.5 9.5 5.5H12.5C12.7761 5.5 13 5.72386 13 6C13 6.27614 12.7761 6.5 12.5 6.5H9.5C9.22386 6.5 9 6.27614 9 6Z" fill="#var(--fill-color1)"/>
<path d="M9 7.5C9 7.22386 9.22386 7 9.5 7H12.5C12.7761 7 13 7.22386 13 7.5C13 7.77614 12.7761 8 12.5 8H9.5C9.22386 8 9 7.77614 9 7.5Z" fill="var(--fill-color1)"/>
<path fill-rule="evenodd" clip-rule="evenodd" d="M3 5C3 3.89543 3.89543 3 5 3C6.10457 3 7 3.89543 7 5C7 5.5324 6.79197 6.01621 6.45276 6.37459C7.37545 6.88625 8 7.87019 8 9H2C2 7.87019 2.62455 6.88625 3.54724 6.37459C3.20803 6.01621 3 5.5324 3 5ZM5.00001 6C5.5523 6 6.00001 5.55228 6.00001 5C6.00001 4.44772 5.5523 4 5.00001 4C4.44773 4 4.00001 4.44772 4.00001 5C4.00001 5.55228 4.44773 6 5.00001 6ZM3.26758 8C3.61339 7.4022 4.25973 7 5.00001 7C5.7403 7 6.38664 7.4022 6.73245 8H3.26758Z" fill="var(--fill-color1)"/>
</svg>

<svg xmlns="http://www.w3.org/2000/svg" width="16" height="12" fill="none"><path fill="var(--fill-color1)" fill-rule="evenodd" d="M2.5 1A1.5 1.5 0 0 0 1 2.5v7A1.5 1.5 0 0 0 2.5 11h11A1.5 1.5 0 0 0 15 9.5v-7A1.5 1.5 0 0 0 13.5 1h-11ZM0 2.5A2.5 2.5 0 0 1 2.5 0h11A2.5 2.5 0 0 1 16 2.5v7a2.5 2.5 0 0 1-2.5 2.5h-11A2.5 2.5 0 0 1 0 9.5v-7Z" clip-rule="evenodd"/><path fill="var(--fill-color1)" d="M9 4.5a.5.5 0 0 1 .5-.5h4a.5.5 0 0 1 0 1h-4a.5.5 0 0 1-.5-.5Z"/><path fill="#var(--fill-color1)" d="M9 6a.5.5 0 0 1 .5-.5h3a.5.5 0 0 1 0 1h-3A.5.5 0 0 1 9 6Z"/><path fill="var(--fill-color1)" d="M9 7.5a.5.5 0 0 1 .5-.5h3a.5.5 0 0 1 0 1h-3a.5.5 0 0 1-.5-.5Z"/><path fill="var(--fill-color1)" fill-rule="evenodd" d="M3 5a2 2 0 1 1 3.453 1.375A3 3 0 0 1 8 9H2a3 3 0 0 1 1.547-2.625A1.993 1.993 0 0 1 3 5Zm2 1a1 1 0 1 0 0-2 1 1 0 0 0 0 2ZM3.268 8a2 2 0 0 1 3.464 0H3.268Z" clip-rule="evenodd"/></svg>
